!!!COM:	Bach, Johann Sebastian
!!!CDT:	1685/02/21/-1750/07/28/
!!!OTL@@DE:	Eins ist not, ach Herr, dies eine
!!!SCT:	BWV 304
!!!PC#:	280
!!!AGN:	chorale
**kern	**kern	**kern	**kern
*ICvox	*ICvox	*ICvox	*ICvox
*Ibass	*Itenor	*Ialto	*Isoprn
*I"Bass	*I"Tenor	*I"Alto	*I"Soprano
*clefF4	*clefGv2	*clefG2	*clefG2
*k[f#c#]	*k[f#c#]	*k[f#c#]	*k[f#c#]
*D:	*D:	*D:	*D:
*M4/4	*M4/4	*M4/4	*M4/4
*met(c)	*met(c)	*met(c)	*met(c)
*MM100	*MM100	*MM100	*MM100
=1-	=1-	=1-	=1-
4D	4d	4f#	4a
4D	4A	4d	8gL
.	.	.	8f#J
8GL	4B	4d	4b
8F#J	.	.	.
4E	8eL	8gL	4b
.	8dJ	8f#J	.
=2	=2	=2	=2
8AL	8c#L	4e	4cc#
8GJ	8BJ	.	.
8F#L	4A	8aL	4cc#
8EJ	.	8gJ	.
4D	4A	4f#	4dd
4D	4A;	4f#	4dd;
=3	=3	=3	=3
8GL	8GL	4d	4.b
8F#J	8AJ	.	.
4E	4B	8gL	.
.	.	8f#J	8a
8EL	4B	4e	4g
8DJ	.	.	.
4C#	4A	4e	4a
=4	=4	=4	=4
4D	4A	4d	8gL
.	.	.	8f#J
4AA	8AL	4c#	8eL
.	8GJ	.	8f#J
2D;	2F#	2A	2d;
=5	=5	=5	=5
4C#	4A	4e	4a
4D	4A	4d	8gL
.	.	.	8f#J
4D#	8AL	4f#	4b
.	8F#J	.	.
4E	8GL	8eL	4b
.	[8BJ	8dnJ	.
=6	=6	=6	=6
4E#	8BL]	4c#	4cc#
.	8G#J	.	.
4F#	4A#	4f#	4cc#
4BB	4B	4f#	4dd
4BB;	4B	4f#	4dd;
=7	=7	=7	=7
4GG	4d	8gnL	4.b
.	.	8f#J	.
4AA	4c#	4en	.
.	.	.	8a
4BB	8BL	4d	4g
.	8GJ	.	.
4C#	8EL	4e	4a
.	8AnJ	.	.
=8	=8	=8	=8
4D	4A	8eL	8gL
.	.	8dJ	8f#J
4AA	4A	8dL	8eL
.	.	8c#J	8f#J
2D	2F#;	2A	2d;
=9||	=9||	=9||	=9||
*M3/4	*M3/4	*M3/4	*M3/4
4D	8F#L	4A	8dL
.	8GJ	.	8eJ
=10	=10	=10	=10
8DL	4A	4d	4f#
8C#J	.	.	.
8DL	4A	4d	4f#
8EJ	.	.	.
8F#L	8AL	4d	4f#
8GJ	8BJ	.	.
=11	=11	=11	=11
4A	8c#L	8c#L	4e
.	8dJ	8BJ	.
4AA	8eL	8c#L	4e
.	8dJ	8dJ	.
4A	4c#	4e	8eL
.	.	.	8f#J
=12	=12	=12	=12
8EL	4B	4e	4g
8D#J	.	.	.
8EL	4B	4e	4g
8F#J	.	.	.
8GL	8BL	4e	8gL
8AJ	8c#J	.	8f#J
=13	=13	=13	=13
4B	8dL	8dL	4f#
.	8eJ	8c#J	.
4BB	8f#L	8dL	4f#
.	8eJ	8eJ	.
8BL	8dL	4f#	4f#
8AJ	8c#J	.	.
=14	=14	=14	=14
8GL	8BL	4.g	4.b
8F#J	8AJ	.	.
4E	8GL	.	.
.	8AJ	8f#	8a
8EL	4B	4e	4g
8DJ	.	.	.
=15	=15	=15	=15
8C#L	4A	8eL	4.a
8BBJ	.	8dJ	.
4AA	4A	4c#	.
.	.	.	8g
8DL	4A	4d	4f#
8C#J	.	.	.
=16	=16	=16	=16
8BBL	8GL	4d	4g
8AAJ	8AJ	.	.
4GG	4B	4d	4f#
4AA	4E	4c#	4e
=17	=17	=17	=17
4D	4F#	4A	4d
4D	4F#	4A	4d
8DL	4F#	4A	8dL
8C#J	.	.	8eJ
=18	=18	=18	=18
4BB	4B	4d	4f#
8BL	4B	4d	4f#
8AJ	.	.	.
8GL	4A	4d	4f#
8F#J	.	.	.
=19	=19	=19	=19
4G#	4B	4d	4e
4E	8AL	8c#L	4e
.	8G#J	8BJ	.
4A	4A	8c#L	8eL
.	.	8dJ	8f#J
=20	=20	=20	=20
4C#	4A	4e	4g
8DL	4B	4e	4g
8C#J	.	.	.
8BBL	4c#	4e	8gL
8AAJ	.	.	8f#J
=21	=21	=21	=21
2D	2A	4e	2f#
.	.	4d	.
4r	4A	4r	4f#
=22	=22	=22	=22
4BB	8dL	4d	4.b
.	8c#J	.	.
4E	4.B	8gL	.
.	.	8f#J	8a
8E	.	[4e	4g
8D	8B	.	.
=23	=23	=23	=23
8C#L	4.A	8eL]	4.a
8AAJ	.	8gJ	.
4.D	.	8f#L	.
.	8c#	8eJ	8g
.	4d	8d	4f#
8C#	.	8A	.
=24	=24	=24	=24
4BB	4D	4.d	4g
8AAL	4A	.	4f#
8GGJ	.	8e	.
4AA	8AL	4c#	4e
.	8GJ	.	.
=25	=25	=25	=25
2.D;	2.F#	2.A	2.d;
==	==	==	==
*-	*-	*-	*-
!!!hum2abc: -Q ''
!!!title: @{PC#}. @{OTL@@DE}
!!!YOR1: 371 vierstimmige Choralges&auml;nge von Johann Sebastian Bach, 
!!!YOR2: 4th ed. by Alfred D&ouml;rffel (Leipzig: Breitkopf und H&auml;rtel, 
!!!YOR2: c.1875). 178 pp. Plate "V.A.10".  reprint: J.S. Bach, 371 Four-Part 
!!!YOR4: Chorales (New York: Associated Music Publishers, Inc., c.1940).
!!!SMS: B&H, 4th ed, Alfred D&ouml;rffel, c.1875, plate V.A.10
!!!EED:  Craig Stuart Sapp
!!!EEV:  2009/05/22
